public/resources/img/icon/gear-black.svg

<?xml version="1.0" encoding="utf-8"?>
<!-- Generator: Adobe Illustrator 16.0.0, SVG Export Plug-In . SVG Version: 6.00 Build 0)  -->
<!DOCTYPE svg PUBLIC "-//W3C//DTD SVG 1.1//EN" "http://www.w3.org/Graphics/SVG/1.1/DTD/svg11.dtd">
<svg version="1.1" id="Layer_1" xmlns:sketch="http://www.bohemiancoding.com/sketch/ns"
	 xmlns="http://www.w3.org/2000/svg" xmlns:xlink="http://www.w3.org/1999/xlink" x="0px" y="0px" width="17px" height="17px"
	 viewBox="0 0 17 17" enable-background="new 0 0 17 17" xml:space="preserve">
<title>settings-gear</title>
<desc>Created with Sketch.</desc>
<g id="Icons" sketch:type="MSPage">
	<g id="settings-gear" sketch:type="MSArtboardGroup">
		<path id="Imported-Layers" sketch:type="MSShapeGroup" d="M8.529,12.02c-0.971,0-1.804-0.345-2.495-1.037
			c-0.693-0.691-1.039-1.524-1.039-2.497c0-0.973,0.346-1.805,1.039-2.497C6.725,5.296,7.558,4.95,8.529,4.95
			c0.974,0,1.805,0.346,2.499,1.039c0.691,0.692,1.039,1.524,1.039,2.497c0,0.972-0.348,1.805-1.039,2.497
			C10.334,11.675,9.503,12.02,8.529,12.02 M10.52,0c-0.354,0.943-1.033,1.415-2.034,1.415C7.485,1.415,6.807,0.943,6.453,0
			C5.51,0.236,4.67,0.589,3.934,1.061c0.413,0.914,0.265,1.724-0.442,2.43c-0.412,0.414-0.927,0.62-1.547,0.62
			c-0.354,0-0.648-0.058-0.883-0.178C0.59,4.67,0.236,5.509,0,6.453c0.944,0.353,1.415,1.031,1.415,2.033
			c0,1-0.471,1.679-1.415,2.034c0.236,0.942,0.59,1.781,1.062,2.519c0.235-0.119,0.529-0.177,0.883-0.177
			c0.62,0,1.135,0.205,1.547,0.619c0.707,0.705,0.855,1.516,0.442,2.43c0.736,0.472,1.576,0.824,2.519,1.06
			c0.354-0.942,1.032-1.413,2.033-1.413c1,0,1.679,0.471,2.034,1.413c0.941-0.235,1.781-0.588,2.518-1.06
			c-0.412-0.914-0.264-1.725,0.441-2.43c0.414-0.414,0.93-0.619,1.549-0.619c0.352,0,0.646,0.058,0.884,0.177
			c0.47-0.737,0.823-1.576,1.06-2.519c-0.943-0.354-1.414-1.033-1.414-2.034c0-1.002,0.471-1.68,1.414-2.033
			c-0.236-0.944-0.59-1.783-1.06-2.52c-0.237,0.12-0.532,0.178-0.884,0.178c-0.619,0-1.135-0.206-1.549-0.62
			c-0.705-0.706-0.854-1.516-0.441-2.43C12.301,0.589,11.461,0.236,10.52,0"/>
	</g>
</g>
</svg>

<?xml version="1.0" encoding="UTF-8" standalone="no"?>
<svg width="17px" height="17px" viewBox="0 0 17 17" version="1.1" xmlns="http://www.w3.org/2000/svg" xmlns:xlink="http://www.w3.org/1999/xlink" xmlns:sketch="http://www.bohemiancoding.com/sketch/ns">
    <!-- Generator: Sketch 3.3.2 (12043) - http://www.bohemiancoding.com/sketch -->
    <title>settings-gear</title>
    <desc>Created with Sketch.</desc>
    <defs></defs>
    <g id="Icons" stroke="none" stroke-width="1" fill="none" fill-rule="evenodd" sketch:type="MSPage">
        <g id="settings-gear" sketch:type="MSArtboardGroup" fill="#000000">
            <path d="M8.529,12.02 C7.558,12.02 6.725,11.675 6.034,10.983 C5.341,10.291 4.995,9.458 4.995,8.486 C4.995,7.513 5.341,6.681 6.034,5.989 C6.725,5.296 7.558,4.95 8.529,4.95 C9.503,4.95 10.334,5.296 11.027,5.989 C11.719,6.681 12.066,7.513 12.066,8.486 C12.066,9.458 11.719,10.291 11.027,10.983 C10.334,11.675 9.503,12.02 8.529,12.02 M10.519,0 C10.165,0.943 9.487,1.415 8.486,1.415 C7.485,1.415 6.807,0.943 6.453,0 C5.51,0.236 4.67,0.589 3.934,1.061 C4.347,1.975 4.199,2.785 3.492,3.491 C3.08,3.905 2.565,4.111 1.945,4.111 C1.591,4.111 1.297,4.053 1.062,3.933 C0.59,4.67 0.236,5.509 0,6.453 C0.944,6.806 1.415,7.484 1.415,8.486 C1.415,9.487 0.944,10.165 0,10.519 C0.236,11.462 0.59,12.301 1.062,13.038 C1.297,12.919 1.591,12.861 1.945,12.861 C2.565,12.861 3.08,13.067 3.492,13.48 C4.199,14.186 4.347,14.996 3.934,15.91 C4.67,16.382 5.51,16.735 6.453,16.97 C6.807,16.028 7.485,15.557 8.486,15.557 C9.487,15.557 10.165,16.028 10.519,16.97 C11.461,16.735 12.301,16.382 13.037,15.91 C12.625,14.996 12.773,14.186 13.479,13.48 C13.893,13.067 14.408,12.861 15.027,12.861 C15.379,12.861 15.674,12.919 15.911,13.038 C16.381,12.301 16.735,11.462 16.971,10.519 C16.027,10.165 15.557,9.487 15.557,8.486 C15.557,7.484 16.027,6.806 16.971,6.453 C16.735,5.509 16.381,4.67 15.911,3.933 C15.674,4.053 15.379,4.111 15.027,4.111 C14.408,4.111 13.893,3.905 13.479,3.491 C12.773,2.785 12.625,1.975 13.037,1.061 C12.301,0.589 11.461,0.236 10.519,0" id="Imported-Layers" sketch:type="MSShapeGroup"></path>
        </g>
    </g>
</svg>
